X: 24966
T: Maid Of Feakle, The
R: reel
M: 4/4
K: Gmajor
Bc|d2 BG AGEG|DGAB c2 Bc|d2 BG AGEG|DGBG A2 Bc|
d2 BG AGEG|DGAB c2 BA|GABd edge|dBAB G2:|
BddB c2 dc|BddB ABGA|BddB c2 Bc|dBAB A4|
BddB c2 dc|BddB ABGA|Bd d2 edBd|egfa g4:|

